X:317
T: SO HERZIG WIE MEIN LIESEL
N: B0374
O: Europa, Mitteleuropa, Deutschland
R: Liebes - Lied, Liebes - Lust
M: 3/4
L: 1/8
K: C
G2 | Gcc2EE | EGG2
FE | D3DEF | A2G2
G2 | Gcc2EE | EGG2
FE | D3EFD | C2z2
FE | D2D2EF | Gce2
FE | D2D2EF | Gce2
eB | cGG2eB | cGG2
cB | A3FDB, | C2z2

@@@ Tune index: 2120
